X: 34108
T: Reel Des Sucres
R: reel
M: 4/4
K: Dmajor
fzgz f2d2|B2d2 A2dd|fzgz f2d2|B2d2 A2ee|
ezfz e2c2|B2A2 e2ee|ezfz e2c2|1 B2A2 d4 dzAF:|2 B2A2 d2FG A2GF||
F4 F2A2|d2e2 f2ze|fzb2 a4|a2f2 d2ff|
e2d2 c4|c2BB A2F2|1 g2e2 c4|c2BB A2F2|

